packages/icons/svg/Inline/Nextworks.svg

<svg width="14" height="14" viewBox="0 0 14 14" fill="none" xmlns="http://www.w3.org/2000/svg">
<path d="M0 1C0 0.447715 0.447715 0 1 0H3C3.55228 0 4 0.447715 4 1V3C4 3.55228 3.55228 4 3 4H1C0.447715 4 0 3.55228 0 3V1Z" fill="#858585"/>
<path d="M5 1C5 0.447715 5.44772 0 6 0H8C8.55229 0 9 0.447715 9 1V3C9 3.55228 8.55229 4 8 4H6C5.44772 4 5 3.55228 5 3V1Z" fill="#858585"/>
<path d="M1 5C0.447715 5 0 5.44772 0 6V8C0 8.55229 0.447715 9 1 9H3C3.55228 9 4 8.55229 4 8V6C4 5.44772 3.55228 5 3 5H1Z" fill="#858585"/>
<path d="M5 6C5 5.44772 5.44772 5 6 5H8C8.55229 5 9 5.44772 9 6V8C9 8.55229 8.55229 9 8 9H6C5.44772 9 5 8.55229 5 8V6Z" fill="#858585"/>
<path d="M11 0C10.4477 0 10 0.447715 10 1V3C10 3.55228 10.4477 4 11 4H13C13.5523 4 14 3.55228 14 3V1C14 0.447715 13.5523 0 13 0H11Z" fill="#858585"/>
<path d="M10 6C10 5.44772 10.4477 5 11 5H13C13.5523 5 14 5.44772 14 6V8C14 8.55229 13.5523 9 13 9H11C10.4477 9 10 8.55229 10 8V6Z" fill="#858585"/>
<path d="M11 10C10.4477 10 10 10.4477 10 11V13C10 13.5523 10.4477 14 11 14H13C13.5523 14 14 13.5523 14 13V11C14 10.4477 13.5523 10 13 10H11Z" fill="#858585"/>
<path d="M5 11C5 10.4477 5.44772 10 6 10H8C8.55229 10 9 10.4477 9 11V13C9 13.5523 8.55229 14 8 14H6C5.44772 14 5 13.5523 5 13V11Z" fill="#858585"/>
<path d="M1 10C0.447715 10 0 10.4477 0 11V13C0 13.5523 0.447715 14 1 14H3C3.55228 14 4 13.5523 4 13V11C4 10.4477 3.55228 10 3 10H1Z" fill="#858585"/>
</svg>

<svg width="14" height="14" fill="none" xmlns="http://www.w3.org/2000/svg" viewBox="0 0 14 14"><path d="M0 1a1 1 0 011-1h2a1 1 0 011 1v2a1 1 0 01-1 1H1a1 1 0 01-1-1V1zM5 1a1 1 0 011-1h2a1 1 0 011 1v2a1 1 0 01-1 1H6a1 1 0 01-1-1V1zM1 5a1 1 0 00-1 1v2a1 1 0 001 1h2a1 1 0 001-1V6a1 1 0 00-1-1H1zM5 6a1 1 0 011-1h2a1 1 0 011 1v2a1 1 0 01-1 1H6a1 1 0 01-1-1V6zM11 0a1 1 0 00-1 1v2a1 1 0 001 1h2a1 1 0 001-1V1a1 1 0 00-1-1h-2zM10 6a1 1 0 011-1h2a1 1 0 011 1v2a1 1 0 01-1 1h-2a1 1 0 01-1-1V6zM11 10a1 1 0 00-1 1v2a1 1 0 001 1h2a1 1 0 001-1v-2a1 1 0 00-1-1h-2zM5 11a1 1 0 011-1h2a1 1 0 011 1v2a1 1 0 01-1 1H6a1 1 0 01-1-1v-2zM1 10a1 1 0 00-1 1v2a1 1 0 001 1h2a1 1 0 001-1v-2a1 1 0 00-1-1H1z" fill="currentColor"></path></svg>
